images/3235226.svg

<?xml version="1.0" encoding="UTF-8"?>
<svg xmlns="http://www.w3.org/2000/svg" xmlns:xlink="http://www.w3.org/1999/xlink" width="300pt" height="300pt" viewBox="0 0 300 300" version="1.1">
<defs>
<g>
<symbol overflow="visible" id="glyph0-0">
<path style="stroke:none;" d="M 0.546875 1.9375 L 0.546875 -7.75 L 6.046875 -7.75 L 6.046875 1.9375 Z M 1.171875 1.328125 L 5.4375 1.328125 L 5.4375 -7.140625 L 1.171875 -7.140625 Z M 1.171875 1.328125 "/>
</symbol>
<symbol overflow="visible" id="glyph0-1">
<path style="stroke:none;" d="M 1.078125 -8.015625 L 2.546875 -8.015625 L 6.09375 -1.3125 L 6.09375 -8.015625 L 7.15625 -8.015625 L 7.15625 0 L 5.6875 0 L 2.125 -6.703125 L 2.125 0 L 1.078125 0 Z M 1.078125 -8.015625 "/>
</symbol>
<symbol overflow="visible" id="glyph0-2">
<path style="stroke:none;" d="M 1.078125 -8.015625 L 2.171875 -8.015625 L 2.171875 -4.734375 L 6.109375 -4.734375 L 6.109375 -8.015625 L 7.1875 -8.015625 L 7.1875 0 L 6.109375 0 L 6.109375 -3.8125 L 2.171875 -3.8125 L 2.171875 0 L 1.078125 0 Z M 1.078125 -8.015625 "/>
</symbol>
</g>
</defs>
<g id="surface50229">
<rect x="0" y="0" width="300" height="300" style="fill:rgb(100%,100%,100%);fill-opacity:1;stroke:none;"/>
<path style="fill:none;stroke-width:1.2;stroke-linecap:butt;stroke-linejoin:miter;stroke:rgb(0%,0%,0%);stroke-opacity:1;stroke-miterlimit:10;" d="M 64.332031 66.050781 L 62.015625 78.828125 "/>
<path style="fill:none;stroke-width:1.2;stroke-linecap:butt;stroke-linejoin:miter;stroke:rgb(0%,0%,100%);stroke-opacity:1;stroke-miterlimit:10;" d="M 62.015625 78.828125 L 59.695312 91.601562 "/>
<path style="fill:none;stroke-width:1.2;stroke-linecap:butt;stroke-linejoin:miter;stroke:rgb(0%,0%,100%);stroke-opacity:1;stroke-miterlimit:10;" d="M 59.695312 91.601562 L 47.472656 95.980469 "/>
<path style="fill:none;stroke-width:1.2;stroke-linecap:butt;stroke-linejoin:miter;stroke:rgb(0%,0%,0%);stroke-opacity:1;stroke-miterlimit:10;" d="M 47.472656 95.980469 L 35.25 100.363281 "/>
<path style="fill:none;stroke-width:1.2;stroke-linecap:butt;stroke-linejoin:miter;stroke:rgb(0%,0%,100%);stroke-opacity:1;stroke-miterlimit:10;" d="M 59.695312 91.601562 L 69.601562 100 "/>
<path style="fill:none;stroke-width:1.2;stroke-linecap:butt;stroke-linejoin:miter;stroke:rgb(0%,0%,0%);stroke-opacity:1;stroke-miterlimit:10;" d="M 69.601562 100 L 79.503906 108.394531 "/>
<path style=" stroke:none;fill-rule:nonzero;fill:rgb(100%,100%,100%);fill-opacity:1;" d="M 55.695312 85.101562 L 63.695312 85.101562 L 63.695312 98.101562 L 55.695312 98.101562 Z M 55.695312 85.101562 "/>
<g style="fill:rgb(0%,0%,100%);fill-opacity:1;">
  <use xlink:href="#glyph0-1" x="55.695312" y="95.00293"/>
</g>
<path style="fill:none;stroke-width:1.2;stroke-linecap:butt;stroke-linejoin:miter;stroke:rgb(0%,0%,0%);stroke-opacity:1;stroke-miterlimit:10;" d="M 79.503906 108.394531 L 103.949219 99.636719 "/>
<path style="fill:none;stroke-width:1.2;stroke-linecap:butt;stroke-linejoin:miter;stroke:rgb(0%,0%,0%);stroke-opacity:1;stroke-miterlimit:10;" d="M 84.011719 113.269531 L 103.566406 106.261719 "/>
<path style="fill:none;stroke-width:1.2;stroke-linecap:butt;stroke-linejoin:miter;stroke:rgb(0%,0%,0%);stroke-opacity:1;stroke-miterlimit:10;" d="M 74.867188 133.945312 L 79.503906 108.394531 "/>
<path style="fill:none;stroke-width:1.2;stroke-linecap:butt;stroke-linejoin:miter;stroke:rgb(0%,0%,0%);stroke-opacity:1;stroke-miterlimit:10;" d="M 103.949219 99.636719 L 123.757812 116.425781 "/>
<path style="fill:none;stroke-width:1.2;stroke-linecap:butt;stroke-linejoin:miter;stroke:rgb(0%,0%,0%);stroke-opacity:1;stroke-miterlimit:10;" d="M 123.757812 116.425781 L 119.121094 141.976562 "/>
<path style="fill:none;stroke-width:1.2;stroke-linecap:butt;stroke-linejoin:miter;stroke:rgb(0%,0%,0%);stroke-opacity:1;stroke-miterlimit:10;" d="M 117.285156 117.890625 L 113.574219 138.332031 "/>
<path style="fill:none;stroke-width:1.2;stroke-linecap:butt;stroke-linejoin:miter;stroke:rgb(0%,0%,0%);stroke-opacity:1;stroke-miterlimit:10;" d="M 119.121094 141.976562 L 94.675781 150.738281 "/>
<path style="fill:none;stroke-width:1.2;stroke-linecap:butt;stroke-linejoin:miter;stroke:rgb(0%,0%,0%);stroke-opacity:1;stroke-miterlimit:10;" d="M 119.121094 141.976562 L 138.929688 158.769531 "/>
<path style="fill:none;stroke-width:1.2;stroke-linecap:butt;stroke-linejoin:miter;stroke:rgb(0%,0%,0%);stroke-opacity:1;stroke-miterlimit:10;" d="M 94.675781 150.738281 L 74.867188 133.945312 "/>
<path style="fill:none;stroke-width:1.2;stroke-linecap:butt;stroke-linejoin:miter;stroke:rgb(0%,0%,0%);stroke-opacity:1;stroke-miterlimit:10;" d="M 96.644531 144.398438 L 80.800781 130.964844 "/>
<path style="fill:none;stroke-width:1.2;stroke-linecap:butt;stroke-linejoin:miter;stroke:rgb(0%,0%,0%);stroke-opacity:1;stroke-miterlimit:10;" d="M 138.929688 158.769531 L 136.613281 171.542969 "/>
<path style="fill:none;stroke-width:1.2;stroke-linecap:butt;stroke-linejoin:miter;stroke:rgb(0%,0%,100%);stroke-opacity:1;stroke-miterlimit:10;" d="M 136.613281 171.542969 L 134.292969 184.320312 "/>
<path style="fill:none;stroke-width:1.2;stroke-linecap:butt;stroke-linejoin:miter;stroke:rgb(0%,0%,0%);stroke-opacity:1;stroke-miterlimit:10;" d="M 144.480469 162.414062 L 142.625 172.636719 "/>
<path style="fill:none;stroke-width:1.2;stroke-linecap:butt;stroke-linejoin:miter;stroke:rgb(0%,0%,100%);stroke-opacity:1;stroke-miterlimit:10;" d="M 142.625 172.636719 L 140.769531 182.855469 "/>
<path style="fill:none;stroke-width:1.2;stroke-linecap:butt;stroke-linejoin:miter;stroke:rgb(0%,0%,100%);stroke-opacity:1;stroke-miterlimit:10;" d="M 163.375 150.011719 L 151.152344 154.390625 "/>
<path style="fill:none;stroke-width:1.2;stroke-linecap:butt;stroke-linejoin:miter;stroke:rgb(0%,0%,0%);stroke-opacity:1;stroke-miterlimit:10;" d="M 151.152344 154.390625 L 138.929688 158.769531 "/>
<path style="fill:none;stroke-width:1.2;stroke-linecap:butt;stroke-linejoin:miter;stroke:rgb(0%,0%,100%);stroke-opacity:1;stroke-miterlimit:10;" d="M 134.292969 184.320312 L 144.195312 192.714844 "/>
<path style="fill:none;stroke-width:1.2;stroke-linecap:butt;stroke-linejoin:miter;stroke:rgb(0%,0%,0%);stroke-opacity:1;stroke-miterlimit:10;" d="M 144.195312 192.714844 L 154.101562 201.113281 "/>
<path style=" stroke:none;fill-rule:nonzero;fill:rgb(100%,100%,100%);fill-opacity:1;" d="M 130.292969 177.820312 L 138.292969 177.820312 L 138.292969 190.820312 L 130.292969 190.820312 Z M 130.292969 177.820312 "/>
<g style="fill:rgb(0%,0%,100%);fill-opacity:1;">
  <use xlink:href="#glyph0-1" x="130.292969" y="187.72168"/>
</g>
<path style="fill:none;stroke-width:1.2;stroke-linecap:butt;stroke-linejoin:miter;stroke:rgb(0%,0%,0%);stroke-opacity:1;stroke-miterlimit:10;" d="M 154.101562 201.113281 L 149.464844 226.664062 "/>
<path style="fill:none;stroke-width:1.2;stroke-linecap:butt;stroke-linejoin:miter;stroke:rgb(0%,0%,0%);stroke-opacity:1;stroke-miterlimit:10;" d="M 159.648438 204.757812 L 155.9375 225.199219 "/>
<path style="fill:none;stroke-width:1.2;stroke-linecap:butt;stroke-linejoin:miter;stroke:rgb(0%,0%,0%);stroke-opacity:1;stroke-miterlimit:10;" d="M 178.546875 192.351562 L 154.101562 201.113281 "/>
<path style="fill:none;stroke-width:1.2;stroke-linecap:butt;stroke-linejoin:miter;stroke:rgb(0%,0%,0%);stroke-opacity:1;stroke-miterlimit:10;" d="M 149.464844 226.664062 L 169.273438 243.453125 "/>
<path style="fill:none;stroke-width:1.2;stroke-linecap:butt;stroke-linejoin:miter;stroke:rgb(0%,0%,0%);stroke-opacity:1;stroke-miterlimit:10;" d="M 169.273438 243.453125 L 193.71875 234.695312 "/>
<path style="fill:none;stroke-width:1.2;stroke-linecap:butt;stroke-linejoin:miter;stroke:rgb(0%,0%,0%);stroke-opacity:1;stroke-miterlimit:10;" d="M 169.65625 236.824219 L 189.214844 229.820312 "/>
<path style="fill:none;stroke-width:1.2;stroke-linecap:butt;stroke-linejoin:miter;stroke:rgb(0%,0%,0%);stroke-opacity:1;stroke-miterlimit:10;" d="M 193.71875 234.695312 L 198.355469 209.144531 "/>
<path style="fill:none;stroke-width:1.2;stroke-linecap:butt;stroke-linejoin:miter;stroke:rgb(0%,0%,0%);stroke-opacity:1;stroke-miterlimit:10;" d="M 198.355469 209.144531 L 178.546875 192.351562 "/>
<path style="fill:none;stroke-width:1.2;stroke-linecap:butt;stroke-linejoin:miter;stroke:rgb(0%,0%,0%);stroke-opacity:1;stroke-miterlimit:10;" d="M 192.425781 212.125 L 176.578125 198.691406 "/>
<path style="fill:none;stroke-width:1.2;stroke-linecap:butt;stroke-linejoin:miter;stroke:rgb(0%,0%,0%);stroke-opacity:1;stroke-miterlimit:10;" d="M 178.546875 192.351562 L 183.183594 166.800781 "/>
<path style="fill:none;stroke-width:1.2;stroke-linecap:butt;stroke-linejoin:miter;stroke:rgb(0%,0%,0%);stroke-opacity:1;stroke-miterlimit:10;" d="M 183.183594 166.800781 L 173.28125 158.40625 "/>
<path style="fill:none;stroke-width:1.2;stroke-linecap:butt;stroke-linejoin:miter;stroke:rgb(0%,0%,100%);stroke-opacity:1;stroke-miterlimit:10;" d="M 173.28125 158.40625 L 163.375 150.011719 "/>
<path style="fill:none;stroke-width:1.2;stroke-linecap:butt;stroke-linejoin:miter;stroke:rgb(0%,0%,0%);stroke-opacity:1;stroke-miterlimit:10;" d="M 177.253906 169.785156 L 169.328125 163.066406 "/>
<path style="fill:none;stroke-width:1.2;stroke-linecap:butt;stroke-linejoin:miter;stroke:rgb(0%,0%,100%);stroke-opacity:1;stroke-miterlimit:10;" d="M 169.328125 163.066406 L 161.40625 156.351562 "/>
<path style="fill:none;stroke-width:1.2;stroke-linecap:butt;stroke-linejoin:miter;stroke:rgb(0%,0%,0%);stroke-opacity:1;stroke-miterlimit:10;" d="M 183.183594 166.800781 L 195.410156 162.421875 "/>
<path style="fill:none;stroke-width:1.2;stroke-linecap:butt;stroke-linejoin:miter;stroke:rgb(0%,0%,100%);stroke-opacity:1;stroke-miterlimit:10;" d="M 195.410156 162.421875 L 207.632812 158.042969 "/>
<path style=" stroke:none;fill-rule:nonzero;fill:rgb(100%,100%,100%);fill-opacity:1;" d="M 159.375 143.511719 L 167.375 143.511719 L 167.375 156.511719 L 159.375 156.511719 Z M 159.375 143.511719 "/>
<g style="fill:rgb(0%,0%,100%);fill-opacity:1;">
  <use xlink:href="#glyph0-1" x="159.375" y="153.413086"/>
</g>
<path style="fill:none;stroke-width:1.2;stroke-linecap:butt;stroke-linejoin:miter;stroke:rgb(0%,0%,100%);stroke-opacity:1;stroke-miterlimit:10;" d="M 207.632812 158.042969 L 209.949219 145.269531 "/>
<path style="fill:none;stroke-width:1.2;stroke-linecap:butt;stroke-linejoin:miter;stroke:rgb(0%,0%,0%);stroke-opacity:1;stroke-miterlimit:10;" d="M 209.949219 145.269531 L 212.269531 132.492188 "/>
<path style=" stroke:none;fill-rule:nonzero;fill:rgb(100%,100%,100%);fill-opacity:1;" d="M 199.632812 151.542969 L 216.632812 151.542969 L 216.632812 164.542969 L 199.632812 164.542969 Z M 199.632812 151.542969 "/>
<g style="fill:rgb(0%,0%,100%);fill-opacity:1;">
  <use xlink:href="#glyph0-1" x="199.632812" y="161.444336"/>
  <use xlink:href="#glyph0-2" x="207.616211" y="161.444336"/>
</g>
<path style="fill:none;stroke-width:1.2;stroke-linecap:butt;stroke-linejoin:miter;stroke:rgb(0%,0%,0%);stroke-opacity:1;stroke-miterlimit:10;" d="M 212.269531 132.492188 L 236.714844 123.734375 "/>
<path style="fill:none;stroke-width:1.2;stroke-linecap:butt;stroke-linejoin:miter;stroke:rgb(0%,0%,0%);stroke-opacity:1;stroke-miterlimit:10;" d="M 236.714844 123.734375 L 241.351562 98.183594 "/>
<path style="fill:none;stroke-width:1.2;stroke-linecap:butt;stroke-linejoin:miter;stroke:rgb(0%,0%,0%);stroke-opacity:1;stroke-miterlimit:10;" d="M 241.351562 98.183594 L 223.410156 79.414062 "/>
<path style="fill:none;stroke-width:1.2;stroke-linecap:butt;stroke-linejoin:miter;stroke:rgb(0%,0%,0%);stroke-opacity:1;stroke-miterlimit:10;" d="M 243.976562 92.082031 L 229.621094 77.066406 "/>
<path style="fill:none;stroke-width:1.2;stroke-linecap:butt;stroke-linejoin:miter;stroke:rgb(0%,0%,100%);stroke-opacity:1;stroke-miterlimit:10;" d="M 264.75 86.917969 L 253.050781 92.550781 "/>
<path style="fill:none;stroke-width:1.2;stroke-linecap:butt;stroke-linejoin:miter;stroke:rgb(0%,0%,0%);stroke-opacity:1;stroke-miterlimit:10;" d="M 253.050781 92.550781 L 241.351562 98.183594 "/>
<path style="fill:none;stroke-width:1.2;stroke-linecap:butt;stroke-linejoin:miter;stroke:rgb(0%,0%,0%);stroke-opacity:1;stroke-miterlimit:10;" d="M 223.410156 79.414062 L 229.5625 67.980469 "/>
<path style="fill:none;stroke-width:1.2;stroke-linecap:butt;stroke-linejoin:miter;stroke:rgb(0%,0%,100%);stroke-opacity:1;stroke-miterlimit:10;" d="M 229.5625 67.980469 L 235.714844 56.546875 "/>
<path style="fill:none;stroke-width:1.2;stroke-linecap:butt;stroke-linejoin:miter;stroke:rgb(0%,0%,100%);stroke-opacity:1;stroke-miterlimit:10;" d="M 235.714844 56.546875 L 248.488281 58.863281 "/>
<path style="fill:none;stroke-width:1.2;stroke-linecap:butt;stroke-linejoin:miter;stroke:rgb(0%,0%,0%);stroke-opacity:1;stroke-miterlimit:10;" d="M 248.488281 58.863281 L 261.265625 61.183594 "/>
<path style="fill:none;stroke-width:1.2;stroke-linecap:butt;stroke-linejoin:miter;stroke:rgb(0%,0%,100%);stroke-opacity:1;stroke-miterlimit:10;" d="M 237.179688 63.023438 L 247.398438 64.878906 "/>
<path style="fill:none;stroke-width:1.2;stroke-linecap:butt;stroke-linejoin:miter;stroke:rgb(0%,0%,0%);stroke-opacity:1;stroke-miterlimit:10;" d="M 247.398438 64.878906 L 257.617188 66.730469 "/>
<path style=" stroke:none;fill-rule:nonzero;fill:rgb(100%,100%,100%);fill-opacity:1;" d="M 231.714844 50.046875 L 239.714844 50.046875 L 239.714844 63.046875 L 231.714844 63.046875 Z M 231.714844 50.046875 "/>
<g style="fill:rgb(0%,0%,100%);fill-opacity:1;">
  <use xlink:href="#glyph0-1" x="231.714844" y="59.948242"/>
</g>
<path style="fill:none;stroke-width:1.2;stroke-linecap:butt;stroke-linejoin:miter;stroke:rgb(0%,0%,0%);stroke-opacity:1;stroke-miterlimit:10;" d="M 261.265625 61.183594 L 263.007812 74.050781 "/>
<path style="fill:none;stroke-width:1.2;stroke-linecap:butt;stroke-linejoin:miter;stroke:rgb(0%,0%,100%);stroke-opacity:1;stroke-miterlimit:10;" d="M 263.007812 74.050781 L 264.75 86.917969 "/>
<path style=" stroke:none;fill-rule:nonzero;fill:rgb(100%,100%,100%);fill-opacity:1;" d="M 256.75 80.417969 L 273.75 80.417969 L 273.75 93.417969 L 256.75 93.417969 Z M 256.75 80.417969 "/>
<g style="fill:rgb(0%,0%,100%);fill-opacity:1;">
  <use xlink:href="#glyph0-1" x="256.75" y="90.319336"/>
  <use xlink:href="#glyph0-2" x="264.733398" y="90.319336"/>
</g>
</g>
</svg>

<svg xmlns="http://www.w3.org/2000/svg" xmlns:xlink="http://www.w3.org/1999/xlink" width="300pt" height="300pt" viewBox="0 0 300 300"><defs><symbol overflow="visible"><path d="M.547 1.938V-7.75h5.5v9.688zm.625-.61h4.266v-8.47H1.171zm0 0"/></symbol><symbol overflow="visible" id="a"><path d="M1.078-8.016h1.47l3.546 6.704v-6.704h1.062V0H5.688L2.124-6.703V0H1.078zm0 0"/></symbol><symbol overflow="visible" id="b"><path d="M1.078-8.016h1.094v3.282H6.11v-3.282h1.077V0H6.11v-3.813H2.17V0H1.078zm0 0"/></symbol></defs><g><path fill="#fff" d="M0 0h300v300H0z"/><path d="M64.332 66.05L62.016 78.83" stroke-width="1.2" stroke="#000" stroke-miterlimit="10" fill="none"/><path d="M62.016 78.828l-2.32 12.774M59.695 91.602L47.473 95.98" stroke-width="1.2" stroke="#00f" stroke-miterlimit="10" fill="none"/><path d="M47.473 95.98l-12.223 4.383" stroke-width="1.2" stroke="#000" stroke-miterlimit="10" fill="none"/><path d="M59.695 91.602L69.602 100" stroke-width="1.2" stroke="#00f" stroke-miterlimit="10" fill="none"/><path d="M69.602 100l9.902 8.395" stroke-width="1.2" stroke="#000" stroke-miterlimit="10" fill="none"/><path d="M55.695 85.102h8v13h-8zm0 0" fill="#fff"/><use xlink:href="#a" x="55.695" y="95.003" fill="#00f"/><path d="M79.504 108.395l24.445-8.758M84.012 113.27l19.554-7.008M74.867 133.945l4.637-25.55M103.95 99.637l19.808 16.79M123.758 116.426l-4.637 25.55M117.285 117.89l-3.71 20.442M119.12 141.977l-24.444 8.76M119.12 141.977l19.81 16.793M94.676 150.738l-19.81-16.793M96.645 144.398L80.8 130.965M138.93 158.77l-2.317 12.773" stroke-width="1.2" stroke="#000" stroke-miterlimit="10" fill="none"/><path d="M136.613 171.543l-2.32 12.777" stroke-width="1.2" stroke="#00f" stroke-miterlimit="10" fill="none"/><path d="M144.48 162.414l-1.855 10.223" stroke-width="1.2" stroke="#000" stroke-miterlimit="10" fill="none"/><path d="M142.625 172.637l-1.855 10.218M163.375 150.012l-12.223 4.38" stroke-width="1.2" stroke="#00f" stroke-miterlimit="10" fill="none"/><path d="M151.152 154.39l-12.222 4.38" stroke-width="1.2" stroke="#000" stroke-miterlimit="10" fill="none"/><path d="M134.293 184.32l9.902 8.395" stroke-width="1.2" stroke="#00f" stroke-miterlimit="10" fill="none"/><path d="M144.195 192.715l9.907 8.398" stroke-width="1.2" stroke="#000" stroke-miterlimit="10" fill="none"/><path d="M130.293 177.82h8v13h-8zm0 0" fill="#fff"/><use xlink:href="#a" x="130.293" y="187.722" fill="#00f"/><path d="M154.102 201.113l-4.637 25.55M159.648 204.758l-3.71 20.44M178.547 192.352l-24.445 8.76M149.465 226.664l19.808 16.79M169.273 243.453l24.446-8.758M169.656 236.824l19.56-7.004M193.72 234.695l4.635-25.55M198.355 209.145l-19.808-16.793M192.426 212.125l-15.848-13.434M178.547 192.352l4.637-25.55M183.184 166.8l-9.903-8.394" stroke-width="1.2" stroke="#000" stroke-miterlimit="10" fill="none"/><path d="M173.28 158.406l-9.905-8.394" stroke-width="1.2" stroke="#00f" stroke-miterlimit="10" fill="none"/><path d="M177.254 169.785l-7.926-6.72" stroke-width="1.2" stroke="#000" stroke-miterlimit="10" fill="none"/><path d="M169.328 163.066l-7.922-6.714" stroke-width="1.2" stroke="#00f" stroke-miterlimit="10" fill="none"/><path d="M183.184 166.8l12.226-4.378" stroke-width="1.2" stroke="#000" stroke-miterlimit="10" fill="none"/><path d="M195.41 162.422l12.223-4.38" stroke-width="1.2" stroke="#00f" stroke-miterlimit="10" fill="none"/><path d="M159.375 143.512h8v13h-8zm0 0" fill="#fff"/><use xlink:href="#a" x="159.375" y="153.413" fill="#00f"/><path d="M207.633 158.043l2.316-12.773" stroke-width="1.2" stroke="#00f" stroke-miterlimit="10" fill="none"/><path d="M209.95 145.27l2.32-12.778" stroke-width="1.2" stroke="#000" stroke-miterlimit="10" fill="none"/><path d="M199.633 151.543h17v13h-17zm0 0" fill="#fff"/><g fill="#00f"><use xlink:href="#a" x="199.633" y="161.444"/><use xlink:href="#b" x="207.616" y="161.444"/></g><path d="M212.27 132.492l24.445-8.758M236.715 123.734l4.637-25.55M241.352 98.184l-17.942-18.77M243.977 92.082L229.62 77.066" stroke-width="1.2" stroke="#000" stroke-miterlimit="10" fill="none"/><path d="M264.75 86.918l-11.7 5.633" stroke-width="1.2" stroke="#00f" stroke-miterlimit="10" fill="none"/><path d="M253.05 92.55l-11.698 5.634M223.41 79.414l6.153-11.434" stroke-width="1.2" stroke="#000" stroke-miterlimit="10" fill="none"/><path d="M229.563 67.98l6.152-11.433M235.715 56.547l12.773 2.316" stroke-width="1.2" stroke="#00f" stroke-miterlimit="10" fill="none"/><path d="M248.488 58.863l12.778 2.32" stroke-width="1.2" stroke="#000" stroke-miterlimit="10" fill="none"/><path d="M237.18 63.023l10.218 1.856" stroke-width="1.2" stroke="#00f" stroke-miterlimit="10" fill="none"/><path d="M247.398 64.88l10.22 1.85" stroke-width="1.2" stroke="#000" stroke-miterlimit="10" fill="none"/><path d="M231.715 50.047h8v13h-8zm0 0" fill="#fff"/><use xlink:href="#a" x="231.715" y="59.948" fill="#00f"/><path d="M261.266 61.184l1.742 12.867" stroke-width="1.2" stroke="#000" stroke-miterlimit="10" fill="none"/><path d="M263.008 74.05l1.742 12.868" stroke-width="1.2" stroke="#00f" stroke-miterlimit="10" fill="none"/><path d="M256.75 80.418h17v13h-17zm0 0" fill="#fff"/><g fill="#00f"><use xlink:href="#a" x="256.75" y="90.319"/><use xlink:href="#b" x="264.733" y="90.319"/></g></g></svg>
